packages/webapp/public/images/template-logos/aircall.svg

<svg width="62" height="62" viewBox="0 0 62 62" fill="none" xmlns="http://www.w3.org/2000/svg">
<path fill-rule="evenodd" clip-rule="evenodd" d="M42.1717 9.94635C39.6903 9.37365 35.6113 9 31 9C26.3887 9 22.3097 9.37365 19.8283 9.94635C14.8807 10.9846 10.9846 14.8807 9.94635 19.8283C9.37365 22.3097 9 26.3887 9 31C9 35.6113 9.37365 39.6903 9.94635 42.1717C10.9846 47.1193 14.8807 51.0154 19.8283 52.0537C22.3097 52.6263 26.3887 53 31 53C35.6113 53 39.6903 52.6263 42.1717 52.0537C47.1193 51.0154 51.0154 47.1193 52.0537 42.1717C52.6263 39.6903 53 35.6113 53 31C53 26.3887 52.6263 22.3097 52.0537 19.8283C51.0154 14.8807 47.1193 10.9846 42.1717 9.94635Z" fill="#00B388"/>
<mask id="mask0_1120_563" style="mask-type:luminance" maskUnits="userSpaceOnUse" x="9" y="9" width="44" height="44">
<path d="M42.1717 9.94635C39.6903 9.37365 35.6113 9 31 9C26.3887 9 22.3097 9.37365 19.8283 9.94635C14.8807 10.9846 10.9846 14.8807 9.94635 19.8283C9.37365 22.3097 9 26.3887 9 31C9 35.6113 9.37365 39.6903 9.94635 42.1717C10.9846 47.1193 14.8807 51.0154 19.8283 52.0537C22.3097 52.6263 26.3887 53 31 53C35.6113 53 39.6903 52.6263 42.1717 52.0537C47.1193 51.0154 51.0154 47.1193 52.0537 42.1717C52.6263 39.6903 53 35.6113 53 31C53 26.3887 52.6263 22.3097 52.0537 19.8283C51.0154 14.8807 47.1193 10.9846 42.1717 9.94635Z" fill="white"/>
</mask>
<g mask="url(#mask0_1120_563)">
<path fill-rule="evenodd" clip-rule="evenodd" d="M36.2866 42.7753C35.869 41.7815 34.9829 41.0332 33.9047 40.8069C33.2595 40.658 32.199 40.5609 31 40.5609C29.8011 40.5609 28.7405 40.658 28.0954 40.8069C27.0249 41.0316 26.1437 41.7708 25.7225 42.754C25.5764 43.095 25.2272 43.3031 24.8577 43.2691C24.7655 43.2607 24.6859 43.2531 24.6189 43.2464C22.8936 43.0747 21.5376 42.835 20.7497 42.5553C20.7484 42.5547 20.7469 42.554 20.745 42.5533C20.2163 42.3546 19.8401 41.8443 19.8401 41.2462C19.8401 41.2313 19.8403 41.2165 19.8408 41.2018C19.842 41.1777 19.8434 41.1531 19.845 41.128C19.8455 41.1224 19.846 41.1168 19.8465 41.1112C19.848 41.0956 19.849 41.0805 19.8493 41.0658C19.9837 39.2702 21.0741 35.0664 22.7029 30.2681C24.5649 24.7828 26.5122 20.342 27.3903 19.4758C27.5304 19.3299 27.6922 19.2076 27.8709 19.1134C27.9407 19.0735 28.0291 19.0354 28.1341 18.9995C28.1368 18.9985 28.1396 18.9976 28.1423 18.9967C28.7192 18.8016 29.7825 18.6709 30.999 18.6709C32.2175 18.6709 33.2808 18.8016 33.8567 18.9963C33.8605 18.9976 33.8632 18.9985 33.866 18.9995C33.9709 19.0354 34.0593 19.0735 34.1291 19.1134C34.3079 19.2076 34.4696 19.3299 34.6085 19.4742C34.6089 19.4747 34.6093 19.4752 34.6097 19.4758C35.4878 20.342 37.4351 24.7828 39.2971 30.2681C40.9259 35.0664 42.0164 39.2702 42.1507 41.0658C42.1511 41.0805 42.152 41.0956 42.1535 41.1112C42.154 41.1168 42.1545 41.1224 42.155 41.128C42.1566 41.1531 42.158 41.1777 42.1593 41.2018C42.1597 41.2165 42.1599 41.2313 42.1599 41.2462C42.1599 41.8443 41.7837 42.3546 41.255 42.5533C41.2532 42.554 41.2516 42.5547 41.2503 42.5553C40.4632 42.8348 39.1088 43.0742 37.3857 43.246C37.3106 43.2535 37.2197 43.2621 37.113 43.2718C36.7587 43.3042 36.4243 43.1032 36.2866 42.7753Z" fill="white"/>
</g>
</svg>

<svg xmlns="http://www.w3.org/2000/svg" width="62" height="62" fill="none"><path fill-rule="evenodd" d="M42.172 9.946C39.69 9.374 35.611 9 31 9s-8.69.374-11.172.946c-4.948 1.038-8.844 4.934-9.882 9.882C9.374 22.31 9 26.389 9 31s.374 8.69.946 11.172c1.038 4.948 4.934 8.844 9.882 9.882C22.31 52.626 26.389 53 31 53s8.69-.374 11.172-.946c4.948-1.038 8.844-4.934 9.882-9.882C52.626 39.69 53 35.611 53 31s-.374-8.69-.946-11.172c-1.038-4.948-4.934-8.844-9.882-9.882z" fill="#00b388"/><mask id="A" maskUnits="userSpaceOnUse" x="9" y="9" width="44" height="44"><path d="M42.172 9.946C39.69 9.374 35.611 9 31 9s-8.69.374-11.172.946c-4.948 1.038-8.844 4.934-9.882 9.882C9.374 22.31 9 26.389 9 31s.374 8.69.946 11.172c1.038 4.948 4.934 8.844 9.882 9.882C22.31 52.626 26.389 53 31 53s8.69-.374 11.172-.946c4.948-1.038 8.844-4.934 9.882-9.882C52.626 39.69 53 35.611 53 31s-.374-8.69-.946-11.172c-1.038-4.948-4.934-8.844-9.882-9.882z" fill="#fff"/></mask><g mask="url(#A)"><path fill-rule="evenodd" d="M36.287 42.775c-.418-.994-1.304-1.742-2.382-1.968-.645-.149-1.706-.246-2.905-.246s-2.259.097-2.905.246c-1.071.225-1.952.964-2.373 1.947-.146.341-.495.549-.865.515l-.239-.023c-1.725-.172-3.081-.411-3.869-.691a1.4 1.4 0 0 1-.91-1.309l.001-.044.004-.074.004-.062c.134-1.796 1.225-5.999 2.854-10.798 1.862-5.485 3.809-9.926 4.687-10.792a1.88 1.88 0 0 1 .481-.362c.07-.04.158-.078.263-.114.585-.198 1.648-.329 2.865-.329s2.282.131 2.858.325a1.59 1.59 0 0 1 .272.117c.179.094.34.216.479.361.879.868 2.827 5.309 4.689 10.794 1.629 4.798 2.719 9.002 2.854 10.798 0 .015.001.03.003.045l.006.09.001.044c0 .598-.376 1.108-.905 1.307-.792.281-2.146.521-3.869.693l-.273.026c-.354.032-.689-.169-.826-.497z" fill="#fff"/></g></svg>
